svgs/lexica.svg

<svg xmlns="http://www.w3.org/2000/svg" viewBox="0 0 192 192"><path d="M166.714 16.503H24.857a8.575 8.575 0 0 0-8.357 8.571v141.855a8.573 8.573 0 0 0 8.571 8.571h141.858a8.575 8.575 0 0 0 8.571-8.571V24.86a8.57 8.57 0 0 0-8.786-8.357Z" fill="none" stroke="#000" stroke-width="12" stroke-linecap="round" stroke-linejoin="round"/><path d="M71.657 33.174v123.341h61.672M58.243 33.174h26.828m48.258 93.813v29.528m-75.086 0h13.414" fill="none" stroke="#000" stroke-width="12" stroke-linecap="round" stroke-linejoin="round"/></svg>

<svg
    xmlns="http://www.w3.org/2000/svg"
    viewBox="0 0 192 192"
    id="vector">
    <path
        id="path"
        d="M 166.714 16.503 L 24.857 16.503 C 22.622 16.559 20.495 17.487 18.934 19.088 C 17.373 20.689 16.499 22.838 16.5 25.074 L 16.5 166.929 C 16.5 168.433 16.896 169.911 17.648 171.214 C 18.401 172.517 19.483 173.599 20.786 174.352 C 22.089 175.104 23.567 175.5 25.071 175.5 L 166.929 175.5 C 169.201 175.5 171.383 174.596 172.989 172.99 C 174.596 171.383 175.5 169.201 175.5 166.929 L 175.5 24.86 C 175.463 23.355 175.03 21.887 174.245 20.602 C 173.461 19.318 172.351 18.263 171.029 17.543 C 169.707 16.824 168.219 16.465 166.714 16.503 Z"
        fill="none"
        stroke="#000000"
        stroke-width="12"
        stroke-linecap="round"
        stroke-linejoin="round"/>
    <path
        id="path_1"
        d="M 71.657 33.174 L 71.657 156.515 L 133.329 156.515"
        fill="none"
        stroke="#000000"
        stroke-width="12"
        stroke-linecap="round"
        stroke-linejoin="round"/>
    <path
        id="path_2"
        d="M 58.243 33.174 L 85.071 33.174 M 133.329 126.987 L 133.329 156.515 M 58.243 156.515 L 71.657 156.515"
        fill="none"
        stroke="#000000"
        stroke-width="12"
        stroke-linecap="round"
        stroke-linejoin="round"/>
</svg>
